X:4235
L:1/8
Q:1/4=140
M:4/4
K:C
 e>f | g3 a g>ed>c | d>cd>e A3 c | G>AGE G2 cG | E2 G>A G c/d/e/f/ | g2 a/b/c' gedc | 
 f2"_sic" abc' bc' dfa | g>ec.e TA2 f |"^song" e2 Td>c c2 e>f | g3 ag>ed>c | Td>cd>e A3 c | 
 G>AGE G2 cG | E2 G>A G c/d/e/f/ | g2 a/b/c' gedc | fedc A2 e>d | cA GE G2 c>d | 
"^syn" cd/e/ Td>c cegc' | g>age a2 c'a |"^song" f>gfd eg GF | E3 G A>GAc | Td>cdf A2 a | 
 gage fedc | f>g a/g/f/e/ d2 g>f | egab !fermata!c'2 b/a/ | gfed A2 e>d | cAGE G2 c>d | 
 e2 Td>c cega | g>age a2 c'a | g>age g2 e>d | BAGE G2 ea | g2 d>c c4 |]

